dist/svg/u1F1EC.svg

<svg id="Layer_1" data-name="Layer 1" xmlns="http://www.w3.org/2000/svg" viewBox="0 0 40 40"><defs><style>.cls-1{fill:#afb7c0;}.cls-2{fill:none;}</style></defs><path class="cls-1" d="M28.5,7.1a4.405,4.405,0,0,1,4.4,4.4v17a4.405,4.405,0,0,1-4.4,4.4h-17a4.405,4.405,0,0,1-4.4-4.4v-17a4.405,4.405,0,0,1,4.4-4.4h17m0-3.6h-17a8,8,0,0,0-8,8v17a8,8,0,0,0,8,8h17a8,8,0,0,0,8-8v-17a8,8,0,0,0-8-8Z"/><path class="cls-1" d="M11.2,20.08c0-6.217,4.273-9.337,9.049-9.337,4.44,0,7.56,2.328,8.329,6.553H24.525a3.969,3.969,0,0,0-4.272-3.313c-2.688,0-5.088,1.537-5.088,6.1,0,4.536,2.4,6.048,5.088,6.048,2.641,0,4.272-1.224,4.465-3.888H19.773v-3.1H28.75c.336,6.745-3.024,10.225-8.5,10.225C15.477,29.369,11.2,26.249,11.2,20.08Z"/><rect class="cls-2" width="40" height="40"/></svg>

<?xml version="1.0" encoding="UTF-8"?><svg id="a" xmlns="http://www.w3.org/2000/svg" viewBox="0 0 40 40"><g><path d="M28.5,3.5H11.5C7.082,3.5,3.5,7.082,3.5,11.5V28.5c0,4.418,3.582,8,8,8H28.5c4.418,0,8-3.582,8-8V11.5c0-4.418-3.582-8-8-8Zm4.4,25c0,2.426-1.974,4.4-4.4,4.4H11.5c-2.426,0-4.4-1.974-4.4-4.4V11.5c0-2.426,1.974-4.4,4.4-4.4H28.5c2.426,0,4.4,1.974,4.4,4.4V28.5Z" fill="#afb7c0"/><path d="M19.773,19.144v3.096h4.944c-.192,2.664-1.824,3.888-4.465,3.888-2.688,0-5.088-1.512-5.088-6.048,0-4.561,2.4-6.097,5.088-6.097,2.232,0,3.816,1.104,4.272,3.312h4.057c-.769-4.225-3.889-6.553-8.329-6.553-4.776,0-9.049,3.12-9.049,9.337,0,6.168,4.272,9.289,9.049,9.289,5.473,0,8.833-3.48,8.497-10.225h-8.977Z" fill="#afb7c0"/></g><rect width="40" height="40" fill="none"/></svg>
